resources/svg/eye.svg

<svg xmlns="http://www.w3.org/2000/svg" viewBox="0 0 17 15" fill="currentColor"><path d="M7.00012 7.5C7.00012 6.67157 7.67169 6 8.50012 6C9.32855 6 10.0001 6.67157 10.0001 7.5C10.0001 8.32843 9.32855 9 8.50012 9C7.67169 9 7.00012 8.32843 7.00012 7.5Z" fill="black"/><path fill-rule="evenodd" clip-rule="evenodd" d="M15.5001 7.49998C15.9643 7.3143 15.9642 7.31409 15.9641 7.31385L15.9633 7.31182L15.9616 7.30752L15.9558 7.29356C15.951 7.28192 15.9441 7.26564 15.9352 7.24504C15.9173 7.20385 15.8912 7.14533 15.8566 7.07195C15.7875 6.92526 15.6841 6.71871 15.5444 6.47224C15.2657 5.98029 14.8391 5.32375 14.2467 4.66552C13.0612 3.34827 11.186 2 8.50005 2C5.81406 2 3.93893 3.34827 2.75341 4.66552C2.161 5.32375 1.73445 5.98029 1.45567 6.47224C1.31601 6.71872 1.21266 6.92526 1.1435 7.07195C1.10891 7.14533 1.08282 7.20386 1.06497 7.24505C1.05604 7.26564 1.04917 7.28192 1.04433 7.29356L1.03857 7.30752L1.03682 7.31182L1.03623 7.31329C1.03614 7.31353 1.03582 7.31431 1.50006 7.5L1.03582 7.31431L0.961548 7.5L1.03582 7.68569L1.50006 7.5C1.03582 7.68569 1.03573 7.68546 1.03582 7.68569L1.03623 7.68671L1.03682 7.68818L1.03857 7.69248L1.04433 7.70644C1.04917 7.71808 1.05604 7.73436 1.06497 7.75495C1.08282 7.79614 1.10891 7.85467 1.1435 7.92805C1.21266 8.07474 1.31601 8.28128 1.45567 8.52776C1.73445 9.01971 2.161 9.67625 2.75341 10.3345C3.93893 11.6517 5.81406 13 8.50005 13C11.186 13 13.0612 11.6517 14.2467 10.3345C14.8391 9.67625 15.2657 9.01971 15.5444 8.52776C15.6841 8.28129 15.7875 8.07474 15.8566 7.92805C15.8912 7.85467 15.9173 7.79615 15.9352 7.75496C15.9441 7.73436 15.951 7.71808 15.9558 7.70644L15.9616 7.69248L15.9633 7.68818L15.9639 7.68671C15.964 7.68647 15.9643 7.68566 15.5001 7.49998L15.9643 7.6857L16.0386 7.5L15.9641 7.31385L15.5001 7.49998ZM8.50012 5C7.11941 5 6.00012 6.11929 6.00012 7.5C6.00012 8.88071 7.11941 10 8.50012 10C9.88083 10 11.0001 8.88071 11.0001 7.5C11.0001 6.11929 9.88083 5 8.50012 5Z" fill="black"/></svg>

<svg xmlns="http://www.w3.org/2000/svg" viewBox="0 0 17 15" fill="currentColor"><path d="M7 7.5a1.5 1.5 0 113 0 1.5 1.5 0 01-3 0z" fill="currentColor"/><path fill-rule="evenodd" clip-rule="evenodd" d="M15.5 7.5l.464-.186v-.002l-.002-.004-.006-.014a3.334 3.334 0 00-.1-.222 10.364 10.364 0 00-1.61-2.406C13.062 3.348 11.187 2 8.5 2 5.814 2 3.939 3.348 2.753 4.666a10.368 10.368 0 00-1.61 2.406 6.064 6.064 0 00-.099.222l-.005.014-.002.004v.001s-.001.001.463.187l-.464-.186-.074.186.074.186L1.5 7.5l-.464.186v.002l.003.004.005.014a3.5 3.5 0 00.1.222 10.369 10.369 0 001.61 2.406C3.938 11.652 5.813 13 8.5 13c2.686 0 4.561-1.348 5.747-2.665a10.364 10.364 0 001.61-2.407 6.223 6.223 0 00.099-.222l.006-.014.001-.004v-.001c.001 0 .001-.001-.463-.187l.464.186.075-.186-.075-.186-.464.186zM8.5 5a2.5 2.5 0 100 5 2.5 2.5 0 000-5z" fill="currentColor"/></svg>
